X:4666
L:1/8
M:4/4
K:D
 (FG) | A2 (AG) F2 (GA) | B2 B2 A3 A | Bc d2 c2 d2 | g2 f2 e3 A | A2 AG FG A2 | Bc dB A2 A | 
 Bc d2 c2 de |{f}"^tr" e4 d2 || de | f2 (gf) e2 (fe) | (df) (ed) (dc) (BA) | Bc d2 c2 d2 | 
{ef} g2 f2 e3 A | (AB) AG FG A2 | B2 B2 A2 AA | (Bc) d2 c2 de |{f}"^tr" e4 d2 ||

